images/global/icons/experiential/street-cleaning.svg

<svg xmlns="http://www.w3.org/2000/svg" viewBox="0 0 276 137"><g stroke="#0C1F2E" stroke-width="3" stroke-linecap="round" stroke-miterlimit="10"><path fill="#FFF" d="M122.745 85.465v-10.8h5.3v10.8z"/><path fill="none" d="M118.3 84.9h15m-10.5 0l-1.2 9.1m6.6-9.1l1 9.1m4.1-9.1l2.3 9.1m-17.3-9.1L116 94"/></g><g fill="#FFF" stroke="#0C1F2E" stroke-width="3" stroke-linecap="round" stroke-miterlimit="10"><circle cx="179.9" cy="84.2" r="11.4"/><circle cx="179.7" cy="84" r="5.2"/></g><circle fill="#FFF" stroke="#0C1F2E" stroke-width="3" stroke-linecap="round" stroke-miterlimit="10" cx="98.6" cy="83.5" r="11.4"/><circle fill="#FFF" stroke="#0C1F2E" stroke-width="3" stroke-linecap="round" stroke-miterlimit="10" cx="98.5" cy="83.3" r="5.2"/><path fill="#FFF" stroke="#0C1F2E" stroke-width="3" stroke-linecap="round" stroke-miterlimit="10" d="M127.1 40h-21.8l-8.5 18.7.1 20.3h30.2z"/><path fill="#FFF" stroke="#0C1F2E" stroke-width="3" stroke-linecap="round" stroke-miterlimit="10" d="M120.6 61.6h-16.5V57l4.7-10h11.8zm30.04 23.86v-10.8h5.3v10.8z"/><path fill="none" stroke="#0C1F2E" stroke-width="3" stroke-linecap="round" stroke-miterlimit="10" d="M146.2 84.9h15m-15 0l-2.3 9.1m6.8-9.1l-1.2 9.1m6.6-9.1l1 9.1m4.1-9.1l2.3 9.1"/><path fill="#FFF" stroke="#0C1F2E" stroke-width="3" stroke-linecap="round" stroke-miterlimit="10" d="M193.1 78.9h-66.2V40h66.2zM96.8 55.5l-13.1 4V79h13.2z"/><path fill="none" stroke="#0C1F2E" stroke-width="3" stroke-linecap="round" stroke-miterlimit="10" d="M140.6 48.1v22.8m13-22.8v22.8m13.1-22.8v22.8M180 48v22.9"/><defs><circle id="b" cx="-762.8" cy="225.5" r="43.5"/></defs></svg>

<svg xmlns="http://www.w3.org/2000/svg" xmlns:xlink="http://www.w3.org/1999/xlink" viewBox="0 0 276 137"><g stroke="#0C1F2E" stroke-width="3" stroke-linecap="round" stroke-miterlimit="10"><path fill="#FFF" d="M122.745 85.465v-10.8h5.3v10.8z"/><path fill="none" d="M118.3 84.9h15M122.8 84.9l-1.2 9.1M128.2 84.9l1 9.1M133.3 84.9l2.3 9.1M118.3 84.9L116 94"/></g><g fill="#FFF" stroke="#0C1F2E" stroke-width="3" stroke-linecap="round" stroke-miterlimit="10"><circle cx="179.9" cy="84.2" r="11.4"/><circle cx="179.7" cy="84" r="5.2"/></g><circle fill="#FFF" stroke="#0C1F2E" stroke-width="3" stroke-linecap="round" stroke-miterlimit="10" cx="98.6" cy="83.5" r="11.4"/><circle fill="#FFF" stroke="#0C1F2E" stroke-width="3" stroke-linecap="round" stroke-miterlimit="10" cx="98.5" cy="83.3" r="5.2"/><path fill="#FFF" stroke="#0C1F2E" stroke-width="3" stroke-linecap="round" stroke-miterlimit="10" d="M127.1 40h-21.8l-8.5 18.7.1 20.3h30.2z"/><path fill="#FFF" stroke="#0C1F2E" stroke-width="3" stroke-linecap="round" stroke-miterlimit="10" d="M120.6 61.6h-16.5V57l4.7-10h11.8zM150.64 85.46v-10.8h5.3v10.8z"/><path fill="none" stroke="#0C1F2E" stroke-width="3" stroke-linecap="round" stroke-miterlimit="10" d="M146.2 84.9h15M146.2 84.9l-2.3 9.1M150.7 84.9l-1.2 9.1M156.1 84.9l1 9.1M161.2 84.9l2.3 9.1"/><path fill="#FFF" stroke="#0C1F2E" stroke-width="3" stroke-linecap="round" stroke-miterlimit="10" d="M193.1 78.9h-66.2V40h66.2zM96.8 55.5l-13.1 4V79h13.2z"/><path fill="none" stroke="#0C1F2E" stroke-width="3" stroke-linecap="round" stroke-miterlimit="10" d="M140.6 48.1v22.8M153.6 48.1v22.8M166.7 48.1v22.8M180 48v22.9"/><defs><circle id="a" cx="-762.8" cy="225.5" r="50.5"/></defs><clipPath id="b"><use xlink:href="#a" overflow="visible"/></clipPath><g clip-path="url(#b)"><defs><path id="c" d="M-937.3-510.5h1121v1030h-1121z"/></defs></g><g><defs><circle id="d" cx="-762.8" cy="225.5" r="43.5"/></defs><clipPath id="e"><use xlink:href="#d" overflow="visible"/></clipPath><g clip-path="url(#e)"><defs><path id="f" d="M-937.3-510.5h1121v1030h-1121z"/></defs></g></g></svg>
